source/img/services/services-nav/social-icon.svg

<svg width="33" height="33" viewBox="0 0 33 33" fill="none" xmlns="http://www.w3.org/2000/svg">
<path fill-rule="evenodd" clip-rule="evenodd" d="M16.7264 5.0904C15.7805 5.0904 14.8925 5.33331 14.1202 5.75985C13.9268 5.86664 13.6835 5.79646 13.5767 5.60311C13.4699 5.40976 13.5401 5.16645 13.7335 5.05967C14.6211 4.5694 15.6418 4.29053 16.7264 4.29053C20.15 4.29053 22.9254 7.06593 22.9254 10.4896C22.9254 13.9132 20.15 16.6886 16.7264 16.6886C13.3027 16.6886 10.5273 13.9132 10.5273 10.4896C10.5273 9.27166 10.879 8.13467 11.4864 7.17599C11.6046 6.98941 11.8517 6.93399 12.0383 7.05221C12.2249 7.17042 12.2803 7.41751 12.1621 7.60409C11.6334 8.43851 11.3272 9.42767 11.3272 10.4896C11.3272 13.4714 13.7445 15.8887 16.7264 15.8887C19.7082 15.8887 22.1255 13.4714 22.1255 10.4896C22.1255 7.50768 19.7082 5.0904 16.7264 5.0904Z" fill="#0A3D76"/>
<path fill-rule="evenodd" clip-rule="evenodd" d="M26.4772 23.9309C26.9469 23.1099 27.1762 22.2198 27.1881 21.3399C27.1911 21.1197 27.373 20.9429 27.5945 20.9452C27.8159 20.9475 27.993 21.1279 27.99 21.3481C27.9763 22.3594 27.7125 23.3823 27.174 24.3238C25.474 27.2955 21.6783 28.3417 18.6959 26.6604C15.7136 24.9791 14.674 21.207 16.3739 18.2352C18.0738 15.2634 21.8696 14.2173 24.8519 15.8986C25.9128 16.4967 26.7287 17.3603 27.2622 18.3583C27.366 18.5526 27.2916 18.7943 27.096 18.8982C26.9004 19.0021 26.6576 18.9288 26.5538 18.7346C26.0894 17.8659 25.3798 17.1144 24.4548 16.5929C21.8572 15.1285 18.5513 16.0397 17.0707 18.628C15.5901 21.2163 16.4956 24.5017 19.0931 25.9661C21.6906 27.4304 24.9966 26.5193 26.4772 23.9309Z" fill="#0A3D76"/>
<path fill-rule="evenodd" clip-rule="evenodd" d="M4.45797 20.1453C4.388 21.0886 4.56457 21.9919 4.93284 22.7932C5.02504 22.9938 4.93706 23.2313 4.73632 23.3237C4.53559 23.4161 4.29812 23.3284 4.20592 23.1278C3.78263 22.2068 3.57999 21.1686 3.66022 20.087C3.91348 16.6728 6.8868 14.1073 10.3013 14.3569C13.7158 14.6065 16.2785 17.5767 16.0253 20.9909C15.772 24.4052 12.7987 26.9706 9.38418 26.721C8.16953 26.6322 7.06157 26.1987 6.15038 25.523C5.97304 25.3915 5.93605 25.1411 6.06775 24.9636C6.19946 24.7862 6.44999 24.7489 6.62733 24.8804C7.42041 25.4685 8.38429 25.8459 9.44335 25.9233C12.4173 26.1407 15.0069 23.9063 15.2275 20.9326C15.4481 17.9589 13.2161 15.372 10.2421 15.1546C7.26821 14.9372 4.67855 17.1716 4.45797 20.1453Z" fill="#0A3D76"/>
<path d="M18.4174 8.37826V7.1084H17.0251C16.366 7.1084 15.8317 7.6332 15.8317 8.28058V9.55044H15.0361V10.7226H15.8317V14.4345H17.0251V10.7226H18.0169L18.2185 9.55044H17.0251V8.57362C17.0251 8.46573 17.1142 8.37826 17.224 8.37826H18.4174Z" fill="#0A3D76"/>
<path fill-rule="evenodd" clip-rule="evenodd" d="M12.9081 17.8159C13.4604 17.8159 13.9081 18.2636 13.9081 18.8159V22.4514C13.9081 23.0037 13.4604 23.4514 12.9081 23.4514H7.01953C6.46725 23.4514 6.01953 23.0037 6.01953 22.4514V18.8159C6.01953 18.2636 6.46725 17.8159 7.01953 17.8159H12.9081ZM9.3319 20.2939V21.2877C9.3319 21.6825 9.76795 21.9216 10.1008 21.7093L10.8798 21.2124C11.188 21.0158 11.188 20.5659 10.8798 20.3693L10.1008 19.8724C9.76795 19.6601 9.3319 19.8992 9.3319 20.2939Z" fill="#AAAAAA"/>
<rect x="6.02197" y="17.8159" width="7.88854" height="5.63548" rx="1" stroke="#0A3D76" stroke-width="0.5"/>
<path d="M9.33301 22.1998V19.3821L11.5418 20.791L9.33301 22.1998Z" stroke="#0A3D76" stroke-width="0.5" stroke-linejoin="round"/>
<path fill-rule="evenodd" clip-rule="evenodd" d="M18.981 18.983V23.2096L19.9526 24.0146H23.4505L24.6164 23.0083V19.1842L23.6448 18.3792H19.7583L18.981 18.983ZM20.7299 21.8007V20.1906L21.8959 19.5868L23.0618 20.3918V21.8007L21.8959 22.4045L20.7299 21.8007Z" fill="#AAAAAA"/>
<rect x="18.981" y="18.3792" width="5.63548" height="5.63548" rx="1" stroke="#0A3D76" stroke-width="0.5"/>
<path d="M23.2387 21.1967C23.2387 21.9924 22.5937 22.6374 21.7981 22.6374C21.0024 22.6374 20.3574 21.9924 20.3574 21.1967C20.3574 20.4011 21.0024 19.7561 21.7981 19.7561C22.5937 19.7561 23.2387 20.4011 23.2387 21.1967Z" stroke="#0A3D76" stroke-width="0.5"/>
<ellipse cx="23.4888" cy="19.5061" rx="0.281772" ry="0.281773" fill="#0A3D76"/>
</svg>

<svg width="33" height="33" fill="none" xmlns="http://www.w3.org/2000/svg"><path fill-rule="evenodd" clip-rule="evenodd" d="M16.726 5.09c-.945 0-1.833.243-2.606.67a.4.4 0 01-.386-.7 6.199 6.199 0 11-2.247 2.116.4.4 0 01.675.428 5.4 5.4 0 104.564-2.514z" fill="#0A3D76"/><path fill-rule="evenodd" clip-rule="evenodd" d="M26.477 23.93c.47-.82.7-1.71.711-2.59a.402.402 0 01.802.008 6.146 6.146 0 01-.816 2.976 6.246 6.246 0 01-8.478 2.336 6.152 6.152 0 01-2.322-8.425 6.246 6.246 0 018.478-2.336 6.142 6.142 0 012.41 2.46.401.401 0 01-.708.376 5.346 5.346 0 00-2.1-2.142 5.44 5.44 0 00-7.383 2.035 5.359 5.359 0 002.022 7.338 5.44 5.44 0 007.384-2.035z" fill="#0A3D76"/><path fill-rule="evenodd" clip-rule="evenodd" d="M4.458 20.145a5.37 5.37 0 00.475 2.648.4.4 0 01-.727.335 6.207 6.207 0 016.095-8.77 6.191 6.191 0 015.724 6.633 6.207 6.207 0 01-9.875 4.532.4.4 0 11.477-.643 5.406 5.406 0 008.6-3.948 5.392 5.392 0 00-4.985-5.777 5.406 5.406 0 00-5.784 4.99z" fill="#0A3D76"/><path d="M18.417 8.378v-1.27h-1.392c-.659 0-1.193.525-1.193 1.173v1.27h-.796v1.172h.796v3.711h1.193v-3.711h.992l.201-1.173h-1.193v-.976c0-.108.09-.196.199-.196h1.193z" fill="#0A3D76"/><path fill-rule="evenodd" clip-rule="evenodd" d="M12.908 17.816a1 1 0 011 1v3.635a1 1 0 01-1 1H7.02a1 1 0 01-1-1v-3.635a1 1 0 011-1h5.888zm-3.576 2.478v.994a.5.5 0 00.769.421l.779-.497a.5.5 0 000-.843l-.78-.497a.5.5 0 00-.768.422z" fill="#AAA"/><rect x="6.022" y="17.816" width="7.889" height="5.635" rx="1" stroke="#0A3D76" stroke-width=".5"/><path d="M9.333 22.2v-2.818l2.209 1.409L9.333 22.2z" stroke="#0A3D76" stroke-width=".5" stroke-linejoin="round"/><path fill-rule="evenodd" clip-rule="evenodd" d="M18.981 18.983v4.227l.972.805h3.498l1.165-1.007v-3.824l-.971-.805h-3.887l-.777.604zm1.749 2.818v-1.61l1.166-.604 1.166.805V21.8l-1.166.604-1.166-.604z" fill="#AAA"/><rect x="18.981" y="18.379" width="5.635" height="5.635" rx="1" stroke="#0A3D76" stroke-width=".5"/><path d="M23.239 21.197a1.44 1.44 0 11-2.882 0 1.44 1.44 0 012.882 0z" stroke="#0A3D76" stroke-width=".5"/><circle cx="23.489" cy="19.506" fill="#0A3D76" r=".282"/></svg>
